assets/icons/uEA1D-marketing.svg

<svg xmlns="http://www.w3.org/2000/svg" viewBox="0 0 371.041 371.041"><path d="M190.032 170.196c1.067 1.065 2.514 1.666 4.023 1.666H364.83c1.614 0 3.152-.686 4.23-1.885 1.08-1.2 1.6-2.806 1.428-4.408-4.88-45.77-26.256-87.76-60.194-118.25C276.327 16.81 232.2 0 186.04 0c-42.186 0-83.493 14.553-116.31 40.984-1.258 1.014-2.025 2.512-2.112 4.126-.087 1.615.517 3.187 1.66 4.33L190.03 170.196zm-23.016-64.865l48.977-72.84c5.62 1.1 11.204 2.51 16.667 4.22l-53.6 80.67-12.044-12.04zM186.04 29.6c1.46 0 2.94.02 4.43.063l-39.856 59.27-12.91-12.912 31.916-45.57c5.448-.57 10.966-.85 16.423-.85zm-49.14 7.896l-15.535 22.18L110.67 48.98c6.925-3.83 14.173-7.145 21.606-9.873 1.522-.56 3.064-1.097 4.62-1.615zm145.193 104.78L313.27 95.35c2.145 3.026 4.198 6.155 6.14 9.35l-25.786 37.57h-11.53zm39.14 0l9.78-14.25c1.86 4.677 3.49 9.443 4.877 14.25h-14.66zm-84.99 0l50.41-75.87c1.62 1.368 3.19 2.746 4.69 4.118 2.256 2.067 4.513 4.27 6.73 6.565l-43.313 65.18h-18.52zm-27.33 0h-4.95l-8.475-8.477 58.803-88.5c4.78 2.33 9.45 4.9 13.95 7.69l-59.32 89.28zm-43.327 42.1L49.963 68.756c-1.144-1.14-2.72-1.746-4.33-1.658-1.613.086-3.113.854-4.127 2.113C15.076 102.03.52 143.33.52 185.52c0 57.78 26.202 111.232 71.89 146.652 1.005.777 2.234 1.193 3.486 1.193.34 0 .68-.03 1.02-.094 1.59-.28 2.98-1.23 3.827-2.61l85.66-139.27c1.38-2.24 1.04-5.14-.823-7zm-34.27 7.58L70.73 290.45c-9.442-10.373-17.41-21.87-23.712-34.24-11.218-22.006-16.906-45.788-16.906-70.69 0-18.5 3.2-36.59 9.514-53.768 2.73-7.436 6.044-14.682 9.874-21.607l81.81 81.806zm233.52 7.228h-167.98c-1.975 0-3.81 1.024-4.846 2.71l-88.014 143.1c-.847 1.376-1.07 3.05-.61 4.598.457 1.547 1.552 2.83 3.008 3.523 24.972 11.896 51.77 17.93 79.646 17.93 46.16 0 90.287-16.808 124.254-47.323 33.938-30.49 55.315-72.485 60.194-118.247.17-1.6-.348-3.206-1.428-4.406-1.08-1.2-2.618-1.89-4.232-1.89z"/></svg>

<?xml version="1.0" encoding="iso-8859-1"?>
<!-- Generator: Adobe Illustrator 18.0.0, SVG Export Plug-In . SVG Version: 6.00 Build 0)  -->
<!DOCTYPE svg PUBLIC "-//W3C//DTD SVG 1.1//EN" "http://www.w3.org/Graphics/SVG/1.1/DTD/svg11.dtd">
<svg version="1.1" id="Capa_1" xmlns="http://www.w3.org/2000/svg" xmlns:xlink="http://www.w3.org/1999/xlink" x="0px" y="0px"
	 viewBox="0 0 371.041 371.041" style="enable-background:new 0 0 371.041 371.041;" xml:space="preserve">
<g>
	<path d="M190.032,170.196c1.067,1.065,2.514,1.666,4.023,1.666H364.83c1.614,0,3.152-0.686,4.231-1.885
		c1.08-1.2,1.599-2.806,1.427-4.408c-4.879-45.762-26.256-87.755-60.194-118.246C276.327,16.808,232.201,0,186.041,0
		c-42.187,0-83.494,14.553-116.31,40.984c-1.259,1.014-2.026,2.512-2.113,4.126c-0.087,1.615,0.517,3.187,1.659,4.33
		L190.032,170.196z M167.016,105.331l48.977-72.844c5.62,1.095,11.204,2.507,16.667,4.216l-53.6,80.672L167.016,105.331z
		 M186.041,29.593c1.459,0,2.935,0.02,4.423,0.063l-39.852,59.273l-12.909-12.912l31.915-45.568
		C175.066,29.881,180.584,29.593,186.041,29.593z M136.893,37.491L121.36,59.673l-10.693-10.693
		c6.925-3.829,14.173-7.146,21.606-9.874C133.795,38.545,135.337,38.009,136.893,37.491z M282.086,142.27l31.177-46.926
		c2.145,3.027,4.198,6.156,6.139,9.352l-25.785,37.573H282.086z M321.226,142.27l9.782-14.251c1.858,4.678,3.488,9.444,4.876,14.251
		H321.226z M236.237,142.27l50.409-75.871c1.622,1.369,3.191,2.747,4.689,4.119c2.257,2.066,4.514,4.268,6.733,6.564l-43.313,65.187
		H236.237z M208.906,142.27h-4.951l-8.474-8.477l58.802-88.499c4.781,2.33,9.45,4.906,13.943,7.694L208.906,142.27z"/>
	<path d="M165.58,184.373L49.962,68.754c-1.144-1.141-2.719-1.745-4.331-1.657c-1.612,0.086-3.112,0.854-4.126,2.113
		C15.076,102.024,0.52,143.331,0.52,185.52c0,57.78,26.202,111.232,71.889,146.652c1.006,0.777,2.235,1.193,3.487,1.193
		c0.339,0,0.681-0.03,1.019-0.094c1.59-0.289,2.982-1.239,3.828-2.616l85.661-139.277
		C167.783,189.135,167.442,186.238,165.58,184.373z M131.309,191.952L70.73,290.449c-9.442-10.371-17.409-21.869-23.712-34.239
		c-11.218-22.005-16.906-45.787-16.906-70.689c0-18.499,3.2-36.591,9.514-53.768c2.731-7.436,6.044-14.682,9.874-21.607
		L131.309,191.952z"/>
	<path d="M364.83,199.179H196.856c-1.976,0-3.812,1.024-4.847,2.71L103.998,344.99c-0.847,1.375-1.069,3.048-0.61,4.597
		c0.457,1.546,1.552,2.828,3.008,3.522c24.972,11.898,51.769,17.932,79.646,17.932c46.16,0,90.286-16.808,124.253-47.323
		c33.938-30.491,55.315-72.484,60.194-118.246c0.172-1.603-0.347-3.208-1.427-4.408C367.982,199.864,366.444,199.179,364.83,199.179
		z"/>
</g>
<g>
</g>
<g>
</g>
<g>
</g>
<g>
</g>
<g>
</g>
<g>
</g>
<g>
</g>
<g>
</g>
<g>
</g>
<g>
</g>
<g>
</g>
<g>
</g>
<g>
</g>
<g>
</g>
<g>
</g>
</svg>
